svg/u1f9ce_1f3fb.svg

<svg viewBox="0 0 128 128" xmlns="http://www.w3.org/2000/svg">
  <path id="shoe_1_" d="M102.66,116.59c0,0-4.03-1.6-6.04-3.14c-1.88-1.44-3.58-3.4-4.75-4.44 c-0.76-0.69-1.43-1-2.02-1c-0.6,0-1.13,0.31-1.58,0.86l-2.58,3.24c-1.08,1.78-0.16,4.11-0.16,4.11s-2.7,2.86,1.8,3.84 c4.61,1.01,10.13,1.56,10.13,1.56c0.29,0.05,0.64,0.08,1.02,0.08c1.9,0,4.6-0.69,5.46-2.66 C103.94,119.04,105.23,117.61,102.66,116.59z" fill="#4568AC"/>
  <path id="pants_1_" d="M85.26,111.53l-15.18-1.84c-0.01,0,5.13-15.82,6.64-23.31c0,0-12.54,3.72-18.98,3.72 c0,0-0.78,13.4-1.05,19.78c-0.36,8.44,2.25,10.91,6.28,11.81c0.92,0.21,2.01,0.3,3.21,0.3c5.32,0,12.92-1.74,19.04-2.46 C87.57,119.25,86.94,112.62,85.26,111.53z" fill="#616161"/>
  <path id="shoe" d="M47.09,119.62c-0.01-2.07-2.12-4.43-2.12-4.43l-7.62,0.01l-6.85,2.28 c-1.66,0.66-2.75,2.25-2.76,4.04v1.38c0,0.6,0.49,1.09,1.09,1.09l17.02-0.05c0.69,0,1.25-0.56,1.25-1.26L47.09,119.62z" fill="#4568AC"/>
  <path id="pants" d="M77.43,77.58c-0.03-0.27-0.24-0.47-0.53-0.44l-18.07,1.23 c-0.1,0.01-10.31,1.42-16.59,1.96c-7.44,0.64-8.14,8.01-7.84,15.13c0.25,5.96,1.91,19.67,1.93,19.81c0.02,0.15,0.11,0.29,0.24,0.37 c0.07,0.04,1.82,1.06,4.94,1.06c3.14,0,4.71-1.05,4.76-1.1c0.11-0.08,0.19-0.21,0.21-0.35l2.57-20.71c1.31-0.06,5.43-0.25,8.76-0.12 c6.45,0.26,12.94-0.08,16.78-4.26C77.16,87.37,78.12,83.13,77.43,77.58z" fill="#7C7C7C"/>
  <path id="head" d="M68.93,28.98c1.09-3.72,1.69-8.33,1.19-11.1c-0.11-0.62-0.27-1.16-0.49-1.57 c-0.63-1.11-1.47-2.18-2.46-3.14c-0.02-0.02-0.04-0.04-0.06-0.05c-0.22-0.22-0.45-0.43-0.69-0.63c-0.04-0.03-0.08-0.07-0.12-0.1 c-0.22-0.19-0.44-0.37-0.67-0.54c-0.05-0.04-0.11-0.08-0.16-0.12c-0.22-0.17-0.45-0.33-0.68-0.48c-0.06-0.04-0.12-0.08-0.18-0.12 c-0.23-0.15-0.47-0.3-0.71-0.44c-0.06-0.04-0.12-0.07-0.18-0.11c-0.25-0.14-0.5-0.27-0.75-0.4c-0.05-0.03-0.11-0.06-0.16-0.08 c-0.27-0.13-0.55-0.26-0.83-0.38c-0.03-0.01-0.07-0.03-0.1-0.04c-1.55-0.63-3.17-1-4.74-1c-0.04,0-0.08,0.01-0.11,0.01 c-0.35,0-0.69,0.02-1.03,0.06c-5.74,0.68-8.99,4.65-10.04,9.81c-0.38,1.87-0.41,3.76-0.15,5.1c0.03,0.16,0.29,1.34,0.3,1.7 c0.15,1.41-2.63,2.68-3.02,4.22c-0.29,1.15,2.11,2.01,2.29,2.22c0.91,1.09-0.83,6,5.82,6.8c2.56,0.31,2.8,0.24,3.6,0.35 c1.59,0.23,1.12,6.68,1.12,6.68l0.01,0v0l11.52-2.31c0,0-1.53-7.45,0.12-10.7C68.06,31.62,68.53,30.36,68.93,28.98z" fill="#F9DDBD"/>
  <path id="mouth" d="M45.93,34.63c0.92,0.09,1.85-0.08,2.66-0.62c0.88-0.6,0.33-1.33-0.67-0.96 c-0.6,0.23-1.44,0.31-2.2,0.13L45.93,34.63z" fill="#444444"/>
  <ellipse id="eye" cx="50.21" cy="26.33" fill="#312D2D" rx="1.88" ry="1.22" transform="matrix(0.0138 -0.9999 0.9999 0.0138 23.1885 76.1685)"/>
  <path id="eyebrow" d="M49.38,23.51c-1.22,0.23-1.42-0.58-0.96-1.17c0.34-0.44,1.1-0.75,2.46-0.34 c1.28,0.39,1.75,1.19,2.05,1.69s0.22,0.95-0.09,0.95C52.42,24.65,50.89,23.23,49.38,23.51z" fill="#454140"/>
  <radialGradient id="shirt_2_" cx="62.0194" cy="72.2346" gradientTransform="matrix(1 0 0 -1 0 128)" gradientUnits="userSpaceOnUse" r="17.0361">
    <stop offset="0.3666" stop-color="#F58B21"/>
    <stop offset="0.6967" stop-color="#F17E22"/>
    <stop offset="1" stop-color="#EC6E24"/>
  </radialGradient>
  <path id="shirt_1_" d="M71.27,48.75c-1.86-6.37-5.03-8-7.8-8c-2.88,0-5.32,1.78-5.32,1.78 c-4.9,3.37-4.91,8.51-5.36,15.42C52.33,64.86,52,78.94,52,78.94s5.44,2.25,13.71,2.25h0.65C75,81.07,78.2,78.08,78.2,78.08 S73.6,56.71,71.27,48.75z" fill="url(#shirt_2_)"/>
  <linearGradient id="arm_1_" gradientTransform="matrix(1 0 0 -1 0 128)" gradientUnits="userSpaceOnUse" x1="53.1412" x2="51.0162" y1="47.947" y2="62.322">
    <stop offset="0.5" stop-color="#F9DDBD"/>
    <stop offset="1" stop-color="#FFD29C"/>
  </linearGradient>
  <path id="arm" d="M71.43,66.86c-0.48-3.02-2.76-14.41-2.78-14.52c-0.05-0.25-0.28-0.42-0.54-0.4 l-10.25,0.98c-0.14,0.01-0.27,0.09-0.36,0.21c-0.08,0.12-0.11,0.26-0.08,0.4l3.56,15.21c-1.75,1.05-10.38,6.15-12.85,6.67 c-1.67,0.35-4.53,0.75-7.83,1.19c-2.64,0.36-5.28,3.82-6.62,5.85c-0.4,0.61-0.36,1.4,0.08,1.96c0.33,0.43,0.83,0.65,1.33,0.65 c0.33,0,0.66-0.1,0.94-0.3l3.57-2.12c0.51,0.07,2.01,0.25,4.05,0.16c2.52-0.11,4.97-1.19,5.05-1.23c0.91-0.35,5.26-1.12,9.47-1.87 c3.14-0.56,6.38-1.13,8.57-1.59C73,76.81,71.86,69.58,71.43,66.86z" fill="url(#arm_1_)"/>
  <path id="shirt" d="M69.68,52.87c-0.5-2.91-2.88-6.55-6.78-6.55c-0.34,0-0.7,0.03-1.07,0.09 c-4.53,0.74-5.87,5.57-5.32,8.73l1.92,9.63L71.6,62.5L69.68,52.87z" fill="#EC6E24"/>
  <g id="hairGroup">
    <path id="hair_1_" d="M73.58,16.58c-1.3-3.65-4.17-4.84-5.11-5.14c-0.4-1.32-2.46-6.34-10.67-5.3 c-2,0.25-3.49,1.15-4.8,1.93c-0.56,0.34-1.1,0.66-1.6,0.87c-0.4,0.17-1.11,0.32-1.68,0.1c-1.3-0.48-0.81-2.46-0.81-2.46 s-4.85,0.77-2.95,5.51c-1.64,0.65-2.46,2.34-2.81,3.94c-0.48,2.19,0.52,4.32,2.6,5.35c0,0-0.29-3.55,4.81-3.16 c1.58,0.12,3.23,0.43,4.72-0.1c0.57-0.21,1.11-0.54,1.66-0.79c0.12,0,0.2,0,0.2,0c1.9,1.11-0.82,5.58,1.24,8.33 c0.41,0.54,0.77,0.36,0.77,0.36l0.91-1.24c0.69-0.84,1.31-1.58,2.12-1.37c2.39,0.62,1.79,4.9-1.1,5.74 c-0.29,0.08,0.19,4.9,6.11,5.12c3.06,0.12,4.23-2.39,4.23-2.39s-1.32,0.28-1.56-0.84c-0.13-0.58,0.43-1.34,1.42-2.15 c2.85-2.35,1.96-5.21,1.58-6.1C73.34,22.01,74.6,19.43,73.58,16.58z" fill="#312D2D"/>
    <g id="hairHighlights">
      <radialGradient id="SVGID_1_" cx="65.61" cy="100.1051" gradientTransform="matrix(0.9245 0.3813 0.5491 -1.3313 -50.3281 136.4369)" gradientUnits="userSpaceOnUse" r="7.7369">
        <stop offset="0.45" stop-color="#454140" stop-opacity="0"/>
        <stop offset="1" stop-color="#454140"/>
      </radialGradient>
      <path d="M72.89,22.81c0.05-0.09-0.93,2.15-4.83,1.63c-1.61-0.06-3.99,3.73-1.74,6.38 c2,2.34,5.12,1.09,5.12,1.09s-0.43,0.11-1.04-0.13c-0.39-0.16-0.52-0.69-0.52-0.71c-0.13-0.58,0.43-1.34,1.42-2.15 C74.15,26.56,73.26,23.7,72.89,22.81z" fill="url(#SVGID_1_)"/>
      <radialGradient id="SVGID_2_" cx="66.5245" cy="107.9071" gradientTransform="matrix(0.9953 -0.0971 -0.1226 -1.2559 13.52 162.4038)" gradientUnits="userSpaceOnUse" r="7.8424">
        <stop offset="0.45" stop-color="#454140" stop-opacity="0"/>
        <stop offset="1" stop-color="#454140"/>
      </radialGradient>
      <path d="M73.58,16.58c-0.68-1.92-2-3.57-3.79-4.56c-0.26-0.15-0.89-0.48-1.34-0.58 c0.18,0.85,0.12,1.74-0.27,2.66c-0.01,0.03-0.47,1.39-1.7,2.45c0.82,1.22,1.2,2.69,1.55,4.12c0.31,1.25,0.6,2.63,0.01,3.77 c0.75-0.02,1.93,0.24,3.27-0.3c1.28-0.52,1.99-1.94,2.35-3.24C74.07,19.48,74.08,17.97,73.58,16.58z" fill="url(#SVGID_2_)"/>
      <radialGradient id="SVGID_3_" cx="57.7759" cy="110.6135" gradientTransform="matrix(0.9932 -0.1162 -0.0874 -0.7466 10.143 106.6882)" gradientUnits="userSpaceOnUse" r="16.1412">
        <stop offset="0.45" stop-color="#454140" stop-opacity="0"/>
        <stop offset="1" stop-color="#454140"/>
      </radialGradient>
      <path d="M68.19,14.1c1.03-2.39-0.21-4.67-2.17-6.24c-2.3-1.83-5.4-2.09-8.22-1.73 c-2,0.25-3.49,1.15-4.8,1.93c-0.56,0.34-1.1,0.66-1.6,0.87c-0.4,0.17-1.11,0.32-1.68,0.1c-1.3-0.48-0.81-2.46-0.81-2.46 s-4.85,0.77-2.95,5.51c-1.64,0.65-2.46,2.34-2.81,3.94c-0.48,2.19,0.52,4.32,2.6,5.35c0,0-0.29-3.55,4.81-3.16 c1.58,0.12,3.23,0.43,4.72-0.1c1.32-0.48,1.79-1.16,3.24-1.03c1.57,0.15,3.64,0.82,5.27,0.64C67.1,17.35,68.17,14.14,68.19,14.1z" fill="url(#SVGID_3_)"/>
      <radialGradient id="SVGID_4_" cx="67.3929" cy="99.1615" gradientTransform="matrix(0.9593 0.2825 0.1816 -0.6167 -15.6172 71.3105)" gradientUnits="userSpaceOnUse" r="8.6894">
        <stop offset="0.45" stop-color="#454140" stop-opacity="0"/>
        <stop offset="1" stop-color="#454140"/>
      </radialGradient>
      <path d="M66.32,30.81c-1.01-1.16-1.22-3.01-2.84-4.06c-0.34,1.06-1.16,2.05-2.39,2.41 c-0.29,0.08,0.19,4.9,6.11,5.12c3.06,0.12,4.23-2.39,4.23-2.39S68.36,33.14,66.32,30.81z" fill="url(#SVGID_4_)"/>
    </g>
  </g>
</svg>

<svg viewBox="0 0 128 128" xmlns="http://www.w3.org/2000/svg">
  <defs>
    <radialGradient id="shirt_2_" cx="62.0194" cy="-55.7654" gradientTransform="matrix(1 0 0 -1 0 0)" gradientUnits="userSpaceOnUse" r="17.0361">
      <stop offset="0.3666" stop-color="#F58B21"/>
      <stop offset="0.6967" stop-color="#F17E22"/>
      <stop offset="1" stop-color="#EC6E24"/>
    </radialGradient>
    <linearGradient id="arm_1_" gradientTransform="matrix(1 0 0 -1 0 0)" gradientUnits="userSpaceOnUse" x1="53.1412" x2="51.0162" y1="-80.053" y2="-65.678">
      <stop offset="0.5" stop-color="#F9DDBD"/>
      <stop offset="1" stop-color="#FFD29C"/>
    </linearGradient>
    <radialGradient id="SVGID_1_" cx="71.10641" cy="-0.804627" gradientTransform="matrix(0.9245 0.3813 0.5491 -1.3313 0 0)" gradientUnits="userSpaceOnUse" r="7.7369">
      <stop offset="0.45" stop-color="#454140" stop-opacity="0"/>
      <stop offset="1" stop-color="#454140"/>
    </radialGradient>
    <radialGradient id="SVGID_2_" cx="64.201864" cy="-21.226009" gradientTransform="matrix(0.9953 -0.0971 -0.1226 -1.2559 0 0)" gradientUnits="userSpaceOnUse" r="7.8424">
      <stop offset="0.45" stop-color="#454140" stop-opacity="0"/>
      <stop offset="1" stop-color="#454140"/>
    </radialGradient>
    <radialGradient id="SVGID_3_" cx="55.445404" cy="-31.922525" gradientTransform="matrix(0.9932 -0.1162 -0.0874 -0.7466 0 0)" gradientUnits="userSpaceOnUse" r="16.1412">
      <stop offset="0.45" stop-color="#454140" stop-opacity="0"/>
      <stop offset="1" stop-color="#454140"/>
    </radialGradient>
    <radialGradient id="SVGID_4_" cx="72.555208" cy="-14.106131" gradientTransform="matrix(0.9593 0.2825 0.1816 -0.6167 0 0)" gradientUnits="userSpaceOnUse" r="8.6894">
      <stop offset="0.45" stop-color="#454140" stop-opacity="0"/>
      <stop offset="1" stop-color="#454140"/>
    </radialGradient>
  </defs>
  <path id="shoe_1_" d="M102.66,116.59 C102.66,116.59 98.63,114.99 96.62,113.45 C94.74,112.01 93.04,110.05 91.87,109.01 C91.11,108.32 90.44,108.01 89.85,108.01 C89.25,108.01 88.72,108.32 88.27,108.87 L85.69,112.11 C84.61,113.89 85.53,116.22 85.53,116.22 C85.53,116.22 82.83,119.08 87.33,120.06 C91.94,121.07 97.46,121.62 97.46,121.62 C97.75,121.67 98.1,121.7 98.48,121.7 C100.38,121.7 103.08,121.01 103.94,119.04 C103.94,119.04 105.23,117.61 102.66,116.59 Z" fill="#4568AC"/>
  <path id="pants_1_" d="M85.26,111.53 L70.08,109.69 C70.07,109.69 75.21,93.87 76.72,86.38 C76.72,86.38 64.18,90.1 57.74,90.1 C57.74,90.1 56.96,103.5 56.69,109.88 C56.33,118.32 58.94,120.79 62.97,121.69 C63.89,121.9 64.98,121.99 66.18,121.99 C71.5,121.99 79.1,120.25 85.22,119.53 C87.57,119.25 86.94,112.62 85.26,111.53 Z" fill="#616161"/>
  <path id="shoe" d="M47.09,119.62 C47.08,117.55 44.97,115.19 44.97,115.19 L37.35,115.2 L30.5,117.48 C28.84,118.14 27.75,119.73 27.74,121.52 L27.74,122.9 C27.74,123.5 28.23,123.99 28.83,123.99 L45.85,123.94 C46.54,123.94 47.1,123.38 47.1,122.68 L47.09,119.62 Z" fill="#4568AC"/>
  <path id="pants" d="M77.43,77.58 C77.4,77.31 77.19,77.11 76.9,77.14 L58.83,78.37 C58.73,78.38 48.52,79.79 42.24,80.33 C34.8,80.97 34.1,88.34 34.4,95.46 C34.65,101.42 36.31,115.13 36.33,115.27 C36.35,115.42 36.44,115.56 36.57,115.64 C36.64,115.68 38.39,116.7 41.51,116.7 C44.65,116.7 46.22,115.65 46.27,115.6 C46.38,115.52 46.46,115.39 46.48,115.25 L49.05,94.54 C50.36,94.48 54.48,94.29 57.81,94.42 C64.26,94.68 70.75,94.34 74.59,90.16 C77.16,87.37 78.12,83.13 77.43,77.58 Z" fill="#7C7C7C"/>
  <path id="head" d="M68.93,28.98 C70.02,25.26 70.62,20.65 70.12,17.88 C70.01,17.26 69.85,16.72 69.63,16.31 C69,15.2 68.16,14.13 67.17,13.17 C67.15,13.15 67.13,13.13 67.11,13.12 C66.89,12.9 66.66,12.69 66.42,12.49 C66.38,12.46 66.34,12.42 66.3,12.39 C66.08,12.2 65.86,12.02 65.63,11.85 C65.58,11.81 65.52,11.77 65.47,11.73 C65.25,11.56 65.02,11.4 64.79,11.25 C64.73,11.21 64.67,11.17 64.61,11.13 C64.38,10.98 64.14,10.83 63.9,10.69 C63.84,10.65 63.78,10.62 63.72,10.58 C63.47,10.44 63.22,10.31 62.97,10.18 C62.92,10.15 62.86,10.12 62.81,10.1 C62.54,9.97 62.26,9.84 61.98,9.72 C61.95,9.71 61.91,9.69 61.88,9.68 C60.33,9.05 58.71,8.68 57.14,8.68 C57.1,8.68 57.06,8.69 57.03,8.69 C56.68,8.69 56.34,8.71 56,8.75 C50.26,9.43 47.01,13.4 45.96,18.56 C45.58,20.43 45.55,22.32 45.81,23.66 C45.84,23.82 46.1,25 46.11,25.36 C46.26,26.77 43.48,28.04 43.09,29.58 C42.8,30.73 45.2,31.59 45.38,31.8 C46.29,32.89 44.55,37.8 51.2,38.6 C53.76,38.91 54,38.84 54.8,38.95 C56.39,39.18 55.92,45.63 55.92,45.63 L55.93,45.63 L55.93,45.63 L67.45,43.32 C67.45,43.32 65.92,35.87 67.57,32.62 C68.06,31.62 68.53,30.36 68.93,28.98 Z" fill="#F9DDBD"/>
  <path id="mouth" d="M45.93,34.63 C46.85,34.72 47.78,34.55 48.59,34.01 C49.47,33.41 48.92,32.68 47.92,33.05 C47.32,33.28 46.48,33.36 45.72,33.18 L45.93,34.63 Z" fill="#444444"/>
  <path id="eye" d="M50.235,24.447 C50.908,24.456 51.443,25.306 51.429,26.344 C51.414,27.382 50.857,28.216 50.183,28.207 C49.509,28.197 48.975,27.348 48.989,26.31 C49.003,25.272 49.561,24.438 50.235,24.447 Z" fill="#312D2D"/>
  <path id="eyebrow" d="M49.38,23.51 C48.16,23.74 47.96,22.93 48.42,22.34 C48.76,21.9 49.52,21.59 50.88,22 C52.16,22.39 52.63,23.19 52.93,23.69 C53.23,24.19 53.15,24.64 52.84,24.64 C52.42,24.65 50.89,23.23 49.38,23.51 Z" fill="#454140"/>
  <path id="shirt_1_" d="M71.27,48.75 C69.41,42.38 66.24,40.75 63.47,40.75 C60.59,40.75 58.15,42.53 58.15,42.53 C53.25,45.9 53.24,51.04 52.79,57.95 C52.33,64.86 52,78.94 52,78.94 C52,78.94 57.44,81.19 65.71,81.19 L66.36,81.19 C75,81.07 78.2,78.08 78.2,78.08 C78.2,78.08 73.6,56.71 71.27,48.75 Z" fill="url(#shirt_2_)"/>
  <path id="arm" d="M71.43,66.86 C70.95,63.84 68.67,52.45 68.65,52.34 C68.6,52.09 68.37,51.92 68.11,51.94 L57.86,52.92 C57.72,52.93 57.59,53.01 57.5,53.13 C57.42,53.25 57.39,53.39 57.42,53.53 L60.98,68.74 C59.23,69.79 50.6,74.89 48.13,75.41 C46.46,75.76 43.6,76.16 40.3,76.6 C37.66,76.96 35.02,80.42 33.68,82.45 C33.28,83.06 33.32,83.85 33.76,84.41 C34.09,84.84 34.59,85.06 35.09,85.06 C35.42,85.06 35.75,84.96 36.03,84.76 L39.6,82.64 C40.11,82.71 41.61,82.89 43.65,82.8 C46.17,82.69 48.62,81.61 48.7,81.57 C49.61,81.22 53.96,80.45 58.17,79.7 C61.31,79.14 64.55,78.57 66.74,78.11 C73,76.81 71.86,69.58 71.43,66.86 Z" fill="url(#arm_1_)"/>
  <path id="shirt" d="M69.68,52.87 C69.18,49.96 66.8,46.32 62.9,46.32 C62.56,46.32 62.2,46.35 61.83,46.41 C57.3,47.15 55.96,51.98 56.51,55.14 L58.43,64.77 L71.6,62.5 L69.68,52.87 Z" fill="#EC6E24"/>
  <path id="hair_1_" d="M73.58,16.58 C72.28,12.93 69.41,11.74 68.47,11.44 C68.07,10.12 66.01,5.1 57.8,6.14 C55.8,6.39 54.31,7.29 53,8.07 C52.44,8.41 51.9,8.73 51.4,8.94 C51,9.11 50.29,9.26 49.72,9.04 C48.42,8.56 48.91,6.58 48.91,6.58 C48.91,6.58 44.06,7.35 45.96,12.09 C44.32,12.74 43.5,14.43 43.15,16.03 C42.67,18.22 43.67,20.35 45.75,21.38 C45.75,21.38 45.46,17.83 50.56,18.22 C52.14,18.34 53.79,18.65 55.28,18.12 C55.85,17.91 56.39,17.58 56.94,17.33 C57.06,17.33 57.14,17.33 57.14,17.33 C59.04,18.44 56.32,22.91 58.38,25.66 C58.79,26.2 59.15,26.02 59.15,26.02 L60.06,24.78 C60.75,23.94 61.37,23.2 62.18,23.41 C64.57,24.03 63.97,28.31 61.08,29.15 C60.79,29.23 61.27,34.05 67.19,34.27 C70.25,34.39 71.42,31.88 71.42,31.88 C71.42,31.88 70.1,32.16 69.86,31.04 C69.73,30.46 70.29,29.7 71.28,28.89 C74.13,26.54 73.24,23.68 72.86,22.79 C73.34,22.01 74.6,19.43 73.58,16.58 Z" fill="#312D2D"/>
  <path d="M72.89,22.81 C72.94,22.72 71.96,24.96 68.06,24.44 C66.45,24.38 64.07,28.17 66.32,30.82 C68.32,33.16 71.44,31.91 71.44,31.91 C71.44,31.91 71.01,32.02 70.4,31.78 C70.01,31.62 69.88,31.09 69.88,31.07 C69.75,30.49 70.31,29.73 71.3,28.92 C74.15,26.56 73.26,23.7 72.89,22.81 Z" fill="url(#SVGID_1_)"/>
  <path d="M73.58,16.58 C72.9,14.66 71.58,13.01 69.79,12.02 C69.53,11.87 68.9,11.54 68.45,11.44 C68.63,12.29 68.57,13.18 68.18,14.1 C68.17,14.13 67.71,15.49 66.48,16.55 C67.3,17.77 67.68,19.24 68.03,20.67 C68.34,21.92 68.63,23.3 68.04,24.44 C68.79,24.42 69.97,24.68 71.31,24.14 C72.59,23.62 73.3,22.2 73.66,20.9 C74.07,19.48 74.08,17.97 73.58,16.58 Z" fill="url(#SVGID_2_)"/>
  <path d="M68.19,14.1 C69.22,11.71 67.98,9.43 66.02,7.86 C63.72,6.03 60.62,5.77 57.8,6.13 C55.8,6.38 54.31,7.28 53,8.06 C52.44,8.4 51.9,8.72 51.4,8.93 C51,9.1 50.29,9.25 49.72,9.03 C48.42,8.55 48.91,6.57 48.91,6.57 C48.91,6.57 44.06,7.34 45.96,12.08 C44.32,12.73 43.5,14.42 43.15,16.02 C42.67,18.21 43.67,20.34 45.75,21.37 C45.75,21.37 45.46,17.82 50.56,18.21 C52.14,18.33 53.79,18.64 55.28,18.11 C56.6,17.63 57.07,16.95 58.52,17.08 C60.09,17.23 62.16,17.9 63.79,17.72 C67.1,17.35 68.17,14.14 68.19,14.1 Z" fill="url(#SVGID_3_)"/>
  <path d="M66.32,30.81 C65.31,29.65 65.1,27.8 63.48,26.75 C63.14,27.81 62.32,28.8 61.09,29.16 C60.8,29.24 61.28,34.06 67.2,34.28 C70.26,34.4 71.43,31.89 71.43,31.89 C71.43,31.89 68.36,33.14 66.32,30.81 Z" fill="url(#SVGID_4_)"/>
</svg>
